X: 20
T: Mountain Road, The
C: Michael Gorman
Z: Nadeau
S: https://thesession.org/tunes/68#setting51110
R: reel
M: 4/4
L: 1/8
K: Dmaj
F2 AF BFAF|F2 AF EFDE|F2 AF BFAF|GEFD EDB,D|
F2 AF BFAF|F2 AF EFDE|FAAG BAFB|ABde fddA||
dcdB ADFA|dcde fgfe|d2 dB AFDA|GEFD EDB,A|
dcdB AFDA|dcde fgfe|d2 dB AFDF|GEFD EDB,D||

